!!!COM: Music21
!!!OTL: Na Ruada
!!!OMV: pezas_muineiras_carballesas_na-ruada_na-ruada-partitura.musicxml
**kern
*I"Bagpipes
*I'Bag
*clefG^2
*k[]
*M2/4
=1
!LO:TX:a:t=Vivace
*MM144
!LO:TX:a:t=[quarter]=144
4r
8eeL
8ffJ
=||
8ggL
8aaJ
8ffL
8ggJ
=
8eeL
8ddJ
8ccL
8eeJ
=
8ggL
8aaJ
8eeL
8ffJ
=
4dd
8ffL
8ggJ
=
8aaL
8bbJ
8ggL
8aaJ
=
8ffL
8eeJ
8ddL
8eeJ
=
8ffL
8ggJ
8ddL
8eeJ
=
4cc
8eeL
8ffJ
!!linebreak:original
=||
8ggL
8aaJ
8ffL
8ggJ
=
8eeL
8ddJ
8ccL
8eeJ
=
8ggL
8aaJ
8eeL
8ffJ
=
4dd
8ffL
8ggJ
=
8aaL
8bbJ
8ggL
8aaJ
=
8ffL
8eeJ
8ddL
8eeJ
=
8ffL
8ggJ
8ddL
8eeJ
!!linebreak:original
=
4cc
8eeL
8ccJ
=||
4dd
8ffL
8ddJ
=
4ee
8ggL
8eeJ
=
8ffL
8ggJ
8aaL
8bbJ
=
8eeL
8ddJ
8ccL
8eeJ
=
4dd
8ffL
8ddJ
=
4ee
8ggL
8eeJ
=
8ffL
8ggJ
8ddL
8eeJ
=
4cc
8eeL
8ccJ
=||
4dd
8ffL
8ddJ
!!linebreak:original
=
4ee
8ggL
8eeJ
=
8ffL
8ggJ
8aaL
8bbJ
=
8eeL
8ddJ
8ccL
8eeJ
=
4dd
8ffL
8ddJ
=
4ee
8ggL
8eeJ
=
8ffL
8ggJ
8ddL
8eeJ
=
4cc
8eeL
8ffJ
==
*-
